static/images/plans/wpcom/plan-personal-circle.svg

<svg height="72" viewBox="0 0 72 72" width="72" xmlns="http://www.w3.org/2000/svg" xmlns:xlink="http://www.w3.org/1999/xlink"><defs><circle id="a" cx="36" cy="36" r="36"/><path id="b" d="m16.4925365 48c-1.5178408 5.5798437-3.122501 9.3149822-4.4925365 10-1.3700355-.6850178-2.97469575-4.4201563-4.49253649-10h-1.63722011c-3.09715774-10.6997201-5.8702434-25.8698136-5.8702434-40v-8h24v8c0 14.1301864-2.7730857 29.3002799-5.8702434 40z"/><mask id="c" fill="#fff"><use fill="#fff" fill-rule="evenodd" xlink:href="#a"/></mask><mask id="d" fill="#fff"><path d="m0 0h72v72h-72z" fill="#fff" fill-rule="evenodd"/></mask><mask id="e" fill="#fff"><use fill="#fff" fill-rule="evenodd" xlink:href="#b"/></mask></defs><g fill="none" fill-rule="evenodd"><use fill="#6795fe" fill-rule="nonzero" xlink:href="#a"/><rect fill="#3574f8" height="2" mask="url(#c)" rx="1" width="29" x="-2" y="54"/><g mask="url(#c)"><g fill="none" fill-rule="evenodd" mask="url(#d)" transform="matrix(.8660254 .5 -.5 .8660254 22.823085 -13.176915)"><g fill-rule="evenodd" transform="translate(24 -4)"><use fill="#005fb7" xlink:href="#b"/><path d="m-24 26h72v22h-72z" fill="#fff" mask="url(#e)"/></g></g></g></g></svg>

<?xml version="1.0" encoding="UTF-8"?><svg width="72px" height="72px" viewBox="0 0 72 72" version="1.1" xmlns="http://www.w3.org/2000/svg" xmlns:xlink="http://www.w3.org/1999/xlink"><defs><circle id="path-1" cx="36" cy="36" r="36"></circle><rect id="path-3" x="0" y="0" width="72" height="72"></rect><path d="M16.4925365,48 C14.9746957,53.5798437 13.3700355,57.3149822 12,58 C10.6299645,57.3149822 9.02530425,53.5798437 7.50746351,48 L5.8702434,48 C2.77308566,37.3002799 0,22.1301864 0,8 L0,0 L24,0 L24,8 C24,22.1301864 21.2269143,37.3002799 18.1297566,48 L16.4925365,48 Z" id="path-5"></path></defs><g id="Plan/Personal" stroke="none" stroke-width="1" fill="none" fill-rule="evenodd"><g id="plan"><mask id="mask-2" fill="white"><use xlink:href="#path-1"></use></mask><use id="bg" fill="#6795FE" fill-rule="nonzero" xlink:href="#path-1"></use><rect id="line" fill="#3574F8" mask="url(#mask-2)" x="-2" y="54" width="29" height="2" rx="1"></rect><g id="icon" mask="url(#mask-2)"><g transform="translate(36.000000, 36.000000) rotate(30.000000) translate(-36.000000, -36.000000) "><mask id="mask-4" fill="white"><use xlink:href="#path-3"></use></mask><g id="bounds" stroke="none" fill="none"></g><g id="pen" stroke="none" stroke-width="1" fill="none" fill-rule="evenodd" mask="url(#mask-4)"><g transform="translate(24.000000, -4.000000)"><mask id="mask-6" fill="white"><use xlink:href="#path-5"></use></mask><use id="shape" stroke="none" fill="#005FB7" fill-rule="evenodd" xlink:href="#path-5"></use><rect id="alt" stroke="none" fill="#FFFFFF" fill-rule="evenodd" mask="url(#mask-6)" x="-24" y="26" width="72" height="22"></rect></g></g></g></g></g></g></svg>
